images/school.svg

<svg width="24" height="24" xmlns="http://www.w3.org/2000/svg" fill-rule="evenodd" clip-rule="evenodd"><path d="M10 23c0-1.105.895-2 2-2h2c.53 0 1.039.211 1.414.586s.586.884.586 1.414v1h-6v-1zm8 0c0-1.105.895-2 2-2h2c.53 0 1.039.211 1.414.586s.586.884.586 1.414v1h-6v-1zm-11.241-14c.649 0 1.293-.213 1.692-.436.755-.42 2.695-1.643 3.485-2.124.216-.131.495-.083.654.113l.008.011c.165.204.146.499-.043.68-.622.597-2.443 2.328-3.37 3.213-.522.499-.822 1.183-.853 1.904-.095 2.207-.261 6.912-.331 8.833-.017.45-.387.806-.837.806h-.001c-.444 0-.786-.347-.836-.788-.111-.981-.329-3.28-.426-4.212-.04-.384-.28-.613-.585-.615-.304-.001-.523.226-.549.609-.061.921-.265 3.248-.341 4.22-.034.442-.397.786-.84.786h-.001c-.452 0-.824-.357-.842-.808-.097-2.342-.369-8.964-.369-8.964l-1.287 2.33c-.14.253-.445.364-.715.26h-.001c-.279-.108-.43-.411-.349-.698l1.244-4.393c.122-.43.515-.727.962-.727h4.531zm6.241 7c1.242 0 2.25 1.008 2.25 2.25s-1.008 2.25-2.25 2.25-2.25-1.008-2.25-2.25 1.008-2.25 2.25-2.25zm8 0c1.242 0 2.25 1.008 2.25 2.25s-1.008 2.25-2.25 2.25-2.25-1.008-2.25-2.25 1.008-2.25 2.25-2.25zm3-1h-14v-2h7v-1h3v1h2v-11h-20v4.356l-2 2v-8.356h24v15zm-7-5h-3v-1h3v1zm-11.626-6c1.241 0 2.25 1.008 2.25 2.25s-1.009 2.25-2.25 2.25c-1.242 0-2.25-1.008-2.25-2.25s1.008-2.25 2.25-2.25zm14.626 4h-6v-1h6v1zm0-2h-6v-1h6v1z"/></svg>

<?xml version="1.0" encoding="utf-8"?>
<!-- Generator: Adobe Illustrator 23.0.1, SVG Export Plug-In . SVG Version: 6.00 Build 0)  -->
<svg version="1.1" id="Layer_1" xmlns="http://www.w3.org/2000/svg" xmlns:xlink="http://www.w3.org/1999/xlink" x="0px" y="0px"
	 viewBox="0 0 24 24" style="enable-background:new 0 0 24 24;" xml:space="preserve">
<style type="text/css">
	.st0{fill-rule:evenodd;clip-rule:evenodd;fill:#23223B;}
</style>
<path class="st0" d="M10,23c0-1.1,0.9-2,2-2h2c0.5,0,1,0.2,1.4,0.6S16,22.5,16,23v1h-6V23z M18,23c0-1.1,0.9-2,2-2h2
	c0.5,0,1,0.2,1.4,0.6S24,22.5,24,23v1h-6V23z M6.8,9c0.6,0,1.3-0.2,1.7-0.4c0.8-0.4,2.7-1.6,3.5-2.1c0.2-0.1,0.5-0.1,0.7,0.1l0,0
	c0.2,0.2,0.1,0.5,0,0.7c-0.6,0.6-2.4,2.3-3.4,3.2c-0.5,0.5-0.8,1.2-0.9,1.9c-0.1,2.2-0.3,6.9-0.3,8.8C8,21.6,7.6,22,7.2,22h0
	c-0.4,0-0.8-0.3-0.8-0.8c-0.1-1-0.3-3.3-0.4-4.2c0-0.4-0.3-0.6-0.6-0.6c-0.3,0-0.5,0.2-0.5,0.6c-0.1,0.9-0.3,3.2-0.3,4.2
	C4.4,21.7,4,22,3.6,22h0c-0.5,0-0.8-0.4-0.8-0.8c-0.1-2.3-0.4-9-0.4-9l-1.3,2.3c-0.1,0.3-0.4,0.4-0.7,0.3h0
	c-0.3-0.1-0.4-0.4-0.3-0.7l1.2-4.4C1.4,9.3,1.8,9,2.2,9C2.2,9,6.8,9,6.8,9z M13,16c1.2,0,2.3,1,2.3,2.3s-1,2.3-2.3,2.3
	s-2.3-1-2.3-2.3S11.8,16,13,16z M21,16c1.2,0,2.3,1,2.3,2.3s-1,2.3-2.3,2.3s-2.3-1-2.3-2.3S19.8,16,21,16z M24,15H10v-2h7v-1h3v1h2
	V2H2v4.4l-2,2V0h24V15z M17,10h-3V9h3V10z M5.4,4c1.2,0,2.3,1,2.3,2.3s-1,2.3-2.3,2.3c-1.2,0-2.3-1-2.3-2.3S4.1,4,5.4,4z M20,8h-6V7
	h6V8z M20,6h-6V5h6V6z"/>
</svg>
